X: 280
T: Greasy Coat
B: canberra pickers and fiddlers
B: tunes
M:C|
L:1/8
R: reel
Q: 1/4=220
K:Adorian
V:1 
AB|"Am"c2A2 G2AB|cA3 G2AB|c2A2 "G"G2AG|"Em"EGA2 "Am"A2AB|!
"Am"c2A2 [c2e2][d2e2]|"C"[e4e4] [e2e2]A2|"Am"c2A2 "G"G2AG | "Em"EGA2 "Am"A2 :|!
|: AG |"A"ABcd edef| "G"g3f g3A- | "A"ABcd efge | a3g a3A- |!
"A"ABcd e2fe | "G"g2ag eAdA | [K:ADor]"Am"c2AA "G"G2AG | "Em"EDEG "Am"A2 :|]
W: I don't drink, and I don't smoke, and I don't wear no greasy coat,
W: I don't spit, and I don't chew, and I don't kiss the girls that do. (or 'go with' instead of 'kiss')
W: 
W: I don't drink, and I don't smoke, and I don't wear no greasy coat
W: I don't kiss, and I don't tell, and all you sinners gonna go to hell
W: 
W: When I ride my house to town, I see that man in a greasy gown,
W: Preaching and praying and singing so fine, I see that pastor abiding his time.
W: 
W: Children chase, never get no will, It's better than taking a sleeping pill.
W: Staying awake is an awful fight, But it sure builds up when it's late at night.
W: 
W: -------------------------------------------------------------------
W: 
W: I don't drink and I don't smoke, I don't wear no greasy coat.
W: I don't smoke and I don't drink and I don't like boys that stink.
W: I don't kiss and I don't tell, all you sinners go to hell.
W: I don't cheat and I don't lie, gonna go to heaven when I die.
W: I don't brush my hair with gel, I don't ride a horse that smell.
W: I don't spit and I don't chew, I don't mess with boys that do.
W: I don't cuss and I don't snore, I'm going back to Arkansas.
W: I don't care what he said, I won't drink that dog fish head.
W: 
W: -------------------------------------------------------------------
W: I've felt up, and I've felt down, but when I saw her, I felt "all-around"
W: Well I don't cheat, and I don't lie, but with a girl like you, I'd give it a try
W: -------------------------------------------------------------------
W: 
W: I don't drink, I don't smoke
W: I don't wear no greasy coat
W: I don't cuss, I don't chew
W: I don't like them Boys In Blue
W: 
W: Cuckhold hand, good ol' hand
W: Lays no fix to the Railroad Man
W: Sometimes five, sometimes ten
W: Lays no fix to the Railroad Man
W: 
W: Tell the preacher, tell the Pope
W: I don't wear no greasy coat
W: I don't need no reason why
W: Ain't goin'a Heaven, honey, when I die
W: 
W: I don't drink, I don't smoke
W: I don't wear no greasy coat
W: I don't kiss, I don't tell
W: All you sinners are goin' to Hell
% abcbook-tune_id 63da5934dafb07416681a830
% abcbook-tune_composer_id 
% abcbook-link-0 https://www.youtube.com/watch?v=OJJJZdITnzg
% abcbook-boost 0
% abcbook-difficulty 0
% abcbook-tags canberra pickers and fiddlers,old time tunes,steve ryan,steve set,© free
% abcbook-tablature 
% abcbook-transpose 
% abcbook-tuning GDAE
% abcbook-lastupdated 1694511563408
% abcbook-src-url https://tunebook.net/scrape/tunes.abc
% abcbook-soundfonts 
% abcbook-repeats 1
%%gchordfont "itim-music,Itim" 20

